X:15467
T:Single Shuffle. BF13.075
M:6/8
Q:100
C:In hand "B"
S:MS13,c1850,Lakes,Browne Coll..
R:Jig
O:England
A:Lakes
Z:vmp.Chris Partington
K:D
A|dcd ecA|dcd ecA|eAA fAA|gfa ecA|!
dcd ecA|dcd ecA|Bgf edc|d3D2::!
z|dcd fed|ede feF|GBG FAF|EAG FED|!
ede fed|ede fed|Bgf edc|d3D2:|]
